src/images/icons/dribbble-icon.svg

<svg width="50" height="50" viewBox="0 0 50 50" fill="none" xmlns="http://www.w3.org/2000/svg">
<path fill-rule="evenodd" clip-rule="evenodd" d="M42.5896 23.5094C42.3563 22.3661 42.0057 21.24 41.5521 20.1643C41.1064 19.1081 40.5534 18.0914 39.9112 17.141C39.274 16.1986 38.5432 15.313 37.7382 14.5087C36.934 13.703 36.0477 12.9715 35.1059 12.3358C34.1555 11.6914 33.1374 11.1406 32.0826 10.6934C31.007 10.2406 29.8816 9.8892 28.7375 9.65736C27.5661 9.41688 26.3594 9.29448 25.1541 9.29448C23.9474 9.29448 22.7421 9.41688 21.5692 9.65736C20.4258 9.8892 19.2998 10.2413 18.2248 10.6934C17.17 11.1406 16.1519 11.6921 15.2001 12.3358C14.2576 12.9715 13.372 13.7023 12.5678 14.5087C11.7628 15.313 11.0327 16.1993 10.3962 17.141C9.75328 18.0914 9.20104 19.1081 8.75536 20.1643C8.2996 21.24 7.9504 22.3661 7.7164 23.5094C7.47664 24.6794 7.35496 25.8862 7.35496 27.0922C7.35496 28.3003 7.47664 29.507 7.7164 30.6778C7.9504 31.8211 8.30032 32.9472 8.75464 34.0222C9.20032 35.077 9.75328 36.0965 10.3955 37.0469C11.032 37.9894 11.7621 38.8735 12.567 39.6792C13.3713 40.4834 14.2576 41.2135 15.1994 41.8507C16.1512 42.4937 17.1693 43.0459 18.2241 43.4916C19.2983 43.9474 20.4251 44.2944 21.5685 44.5291C22.7414 44.771 23.9466 44.892 25.1534 44.892C26.3586 44.892 27.5654 44.771 28.7368 44.5291C29.8816 44.2944 31.0062 43.9466 32.0819 43.4916C33.1367 43.0459 34.1548 42.493 35.1052 41.8507C36.0477 41.2135 36.9333 40.4842 37.7375 39.6792C38.5418 38.8735 39.2733 37.9886 39.9105 37.0469C40.5534 36.0965 41.1057 35.077 41.5514 34.0222C42.0057 32.9479 42.3556 31.8211 42.5889 30.6778C42.8294 29.5063 42.9503 28.2996 42.9503 27.0922C42.951 25.8862 42.8301 24.6794 42.5896 23.5094ZM40.3475 26.9417C40.1279 26.8942 34.9842 25.7868 29.7614 26.4434C29.6548 26.1835 29.5461 25.9214 29.4338 25.6586C29.1177 24.9149 28.7771 24.1776 28.4229 23.454C34.4262 21.0046 36.8634 17.4802 36.8915 17.4384C39.0234 20.0261 40.313 23.3338 40.3475 26.9417ZM27.2529 21.1896C32.9898 19.039 35.1542 15.7442 35.1923 15.6852C32.5139 13.3272 29.0025 11.893 25.1534 11.893C23.9186 11.893 22.7205 12.0434 21.5714 12.3221C21.7996 12.623 24.6544 16.4153 27.2529 21.1896ZM18.6676 13.3452C18.8699 13.6166 21.6815 17.4276 24.3124 22.1033C17.0138 24.0422 10.6799 23.9666 10.2782 23.9594C11.266 19.2514 14.429 15.3475 18.6676 13.3452ZM9.96339 26.693C9.95841 26.8255 9.95344 26.9576 9.95344 27.0922C9.95344 30.9974 11.4273 34.5578 13.8472 37.2514C13.8472 37.2485 13.8414 37.2442 13.8414 37.2442C13.8414 37.2442 18.0023 29.8627 26.2053 27.2117C26.4033 27.1469 26.6034 27.0864 26.8043 27.0302C26.4234 26.1648 26.0066 25.2986 25.571 24.4462C17.7712 26.7806 10.2839 26.6188 9.96929 26.612L9.9664 26.6119L9.96339 26.693ZM25.1534 42.2935C21.4749 42.2935 18.101 40.986 15.4715 38.8102C15.671 38.9722 15.8121 39.0758 15.8121 39.0758C15.8121 39.0758 18.7259 32.7211 27.7396 29.5805C27.7678 29.5697 27.7959 29.5614 27.8241 29.5531L27.8242 29.5531L27.8411 29.5481C29.9802 35.1058 30.863 39.7606 31.0883 41.089C29.2638 41.8651 27.2586 42.2935 25.1534 42.2935ZM30.6887 28.8432C32.6824 34.3217 33.4924 38.7828 33.6472 39.7008C37.06 37.3954 39.4842 33.7421 40.161 29.507C39.8478 29.4041 35.5948 28.0584 30.6887 28.8432Z" fill="#222222"/>
</svg>

<?xml version="1.0" encoding="UTF-8"?>
<svg id="Layer_1" xmlns="http://www.w3.org/2000/svg" version="1.1" viewBox="0 0 50 50">
  <!-- Generator: Adobe Illustrator 30.2.1, SVG Export Plug-In . SVG Version: 2.1.1 Build 1)  -->
  <defs>
    <style>
      .st0 {
        fill: #e3e3e3;
        fill-rule: evenodd;
      }
    </style>
  </defs>
  <path class="st0" d="M42.59,23.51c-.23-1.14-.58-2.27-1.04-3.35-.45-1.06-1-2.07-1.64-3.02-.64-.94-1.37-1.83-2.17-2.63-.8-.81-1.69-1.54-2.63-2.17-.95-.64-1.97-1.2-3.02-1.64-1.08-.45-2.2-.8-3.35-1.04-1.17-.24-2.38-.36-3.58-.36s-2.41.12-3.58.36c-1.14.23-2.27.58-3.34,1.04-1.05.45-2.07,1-3.02,1.64-.94.64-1.83,1.37-2.63,2.17-.8.8-1.54,1.69-2.17,2.63-.64.95-1.2,1.97-1.64,3.02-.46,1.08-.8,2.2-1.04,3.35-.24,1.17-.36,2.38-.36,3.58s.12,2.41.36,3.59c.23,1.14.58,2.27,1.04,3.34.45,1.05,1,2.07,1.64,3.02.64.94,1.37,1.83,2.17,2.63.8.8,1.69,1.53,2.63,2.17.95.64,1.97,1.2,3.02,1.64,1.07.46,2.2.8,3.34,1.04,1.17.24,2.38.36,3.58.36s2.41-.12,3.58-.36c1.14-.23,2.27-.58,3.35-1.04,1.05-.45,2.07-1,3.02-1.64.94-.64,1.83-1.37,2.63-2.17.8-.81,1.54-1.69,2.17-2.63.64-.95,1.2-1.97,1.64-3.02.45-1.07.8-2.2,1.04-3.34.24-1.17.36-2.38.36-3.59,0-1.21-.12-2.41-.36-3.58ZM40.35,26.94c-.22-.05-5.36-1.15-10.59-.5-.11-.26-.22-.52-.33-.78-.32-.74-.66-1.48-1.01-2.2,6-2.45,8.44-5.97,8.47-6.02,2.13,2.59,3.42,5.9,3.46,9.5ZM27.25,21.19c5.74-2.15,7.9-5.45,7.94-5.5-2.68-2.36-6.19-3.79-10.04-3.79-1.23,0-2.43.15-3.58.43.23.3,3.08,4.09,5.68,8.87ZM18.67,13.35c.2.27,3.01,4.08,5.64,8.76-7.3,1.94-13.63,1.86-14.03,1.86.99-4.71,4.15-8.61,8.39-10.61ZM9.96,26.69c0,.13,0,.26,0,.4,0,3.91,1.47,7.47,3.89,10.16,0,0,0,0,0,0,0,0,4.16-7.38,12.36-10.03.2-.06.4-.13.6-.18-.38-.87-.8-1.73-1.23-2.58-7.8,2.33-15.29,2.17-15.6,2.17h0s0,.08,0,.08ZM25.15,42.29c-3.68,0-7.05-1.31-9.68-3.48.2.16.34.27.34.27,0,0,2.91-6.35,11.93-9.5.03-.01.06-.02.08-.03h.02c2.14,5.55,3.02,10.21,3.25,11.54-1.82.78-3.83,1.2-5.93,1.2ZM30.69,28.84c1.99,5.48,2.8,9.94,2.96,10.86,3.41-2.31,5.84-5.96,6.51-10.19-.31-.1-4.57-1.45-9.47-.66Z"/>
</svg>
